images/content/johnson-solids/bilunabirotunda.svg

<?xml version="1.0" encoding="UTF-8"?>
<svg xmlns="http://www.w3.org/2000/svg" xmlns:xlink="http://www.w3.org/1999/xlink" width="278.44pt" height="184.59pt" viewBox="0 0 278.44 184.59" version="1.2">
<defs>
<clipPath id="clip1">
  <path d="M 0.0273438 130 L 73 130 L 73 184 L 0.0273438 184 Z M 0.0273438 130 "/>
</clipPath>
<clipPath id="clip2">
  <path d="M 0.0273438 130 L 73 130 L 73 184.179688 L 0.0273438 184.179688 Z M 0.0273438 130 "/>
</clipPath>
<clipPath id="clip3">
  <path d="M 0.0273438 46 L 112 46 L 112 157 L 0.0273438 157 Z M 0.0273438 46 "/>
</clipPath>
<clipPath id="clip4">
  <path d="M 0.0273438 45 L 113 45 L 113 158 L 0.0273438 158 Z M 0.0273438 45 "/>
</clipPath>
<clipPath id="clip5">
  <path d="M 0.0273438 6 L 112 6 L 112 157 L 0.0273438 157 Z M 0.0273438 6 "/>
</clipPath>
<clipPath id="clip6">
  <path d="M 71 136 L 177 136 L 177 184.179688 L 71 184.179688 Z M 71 136 "/>
</clipPath>
<clipPath id="clip7">
  <path d="M 192 0 L 277.851562 0 L 277.851562 97 L 192 97 Z M 192 0 "/>
</clipPath>
<clipPath id="clip8">
  <path d="M 191 0 L 277.851562 0 L 277.851562 97 L 191 97 Z M 191 0 "/>
</clipPath>
<clipPath id="clip9">
  <path d="M 107 0 L 277.851562 0 L 277.851562 28 L 107 28 Z M 107 0 "/>
</clipPath>
<clipPath id="clip10">
  <path d="M 191 0 L 277.851562 0 L 277.851562 16 L 191 16 Z M 191 0 "/>
</clipPath>
<clipPath id="clip11">
  <path d="M 232 14 L 277.851562 14 L 277.851562 97 L 232 97 Z M 232 14 "/>
</clipPath>
<clipPath id="clip12">
  <path d="M 0.0273438 6 L 95 6 L 95 157 L 0.0273438 157 Z M 0.0273438 6 "/>
</clipPath>
<clipPath id="clip13">
  <path d="M 0.0273438 6 L 95 6 L 95 158 L 0.0273438 158 Z M 0.0273438 6 "/>
</clipPath>
<clipPath id="clip14">
  <path d="M 0.0273438 78 L 73 78 L 73 184 L 0.0273438 184 Z M 0.0273438 78 "/>
</clipPath>
<clipPath id="clip15">
  <path d="M 0.0273438 77 L 73 77 L 73 184.179688 L 0.0273438 184.179688 Z M 0.0273438 77 "/>
</clipPath>
<clipPath id="clip16">
  <path d="M 71 138 L 177 138 L 177 184.179688 L 71 184.179688 Z M 71 138 "/>
</clipPath>
<clipPath id="clip17">
  <path d="M 107 14 L 277.851562 14 L 277.851562 33 L 107 33 Z M 107 14 "/>
</clipPath>
<clipPath id="clip18">
  <path d="M 106 14 L 277.851562 14 L 277.851562 34 L 106 34 Z M 106 14 "/>
</clipPath>
<clipPath id="clip19">
  <path d="M 18 77 L 165 77 L 165 184.179688 L 18 184.179688 Z M 18 77 "/>
</clipPath>
</defs>
<g id="surface1">
<path style=" stroke:none;fill-rule:nonzero;fill:rgb(67.823792%,57.377625%,75.648499%);fill-opacity:1;" d="M 157.824219 137.058594 L 58.492188 130.574219 L 111.824219 46.117188 L 157.824219 137.058594 "/>
<path style="fill:none;stroke-width:10.6001;stroke-linecap:round;stroke-linejoin:round;stroke:rgb(13.729858%,12.159729%,12.548828%);stroke-opacity:1;stroke-miterlimit:10;" d="M 1581.455413 472.269801 L 585.928798 537.257578 L 1120.433689 1383.703798 Z M 1581.455413 472.269801 " transform="matrix(0.0997784,0,0,-0.0997784,0.0291622,184.180909)"/>
<path style=" stroke:none;fill-rule:nonzero;fill:rgb(51.870728%,82.714844%,96.011353%);fill-opacity:1;" d="M 58.492188 130.574219 L 157.824219 137.058594 L 72.183594 183.652344 "/>
<path style="fill:none;stroke-width:10.6001;stroke-linecap:round;stroke-linejoin:round;stroke:rgb(13.729858%,12.159729%,12.548828%);stroke-opacity:1;stroke-miterlimit:10;" d="M 585.928798 537.257578 L 1581.455413 472.269801 " transform="matrix(0.0997784,0,0,-0.0997784,0.0291622,184.180909)"/>
<g clip-path="url(#clip1)" clip-rule="nonzero">
<path style=" stroke:none;fill-rule:nonzero;fill:rgb(51.870728%,82.714844%,96.011353%);fill-opacity:1;" d="M 72.183594 183.652344 L 0.558594 156.640625 L 58.492188 130.574219 "/>
</g>
<g clip-path="url(#clip2)" clip-rule="nonzero">
<path style="fill:none;stroke-width:10.6001;stroke-linecap:round;stroke-linejoin:round;stroke:rgb(13.729858%,12.159729%,12.548828%);stroke-opacity:1;stroke-miterlimit:10;" d="M 723.146966 5.297389 L 5.306075 276.014544 L 585.928798 537.257578 " transform="matrix(0.0997784,0,0,-0.0997784,0.0291622,184.180909)"/>
</g>
<g clip-path="url(#clip3)" clip-rule="nonzero">
<path style=" stroke:none;fill-rule:nonzero;fill:rgb(89.691162%,55.892944%,35.417175%);fill-opacity:1;" d="M 111.824219 46.117188 L 58.492188 130.574219 L 0.558594 156.640625 "/>
</g>
<g clip-path="url(#clip4)" clip-rule="nonzero">
<path style="fill:none;stroke-width:10.6001;stroke-linecap:round;stroke-linejoin:round;stroke:rgb(13.729858%,12.159729%,12.548828%);stroke-opacity:1;stroke-miterlimit:10;" d="M 1120.433689 1383.703798 L 585.928798 537.257578 L 5.306075 276.014544 " transform="matrix(0.0997784,0,0,-0.0997784,0.0291622,184.180909)"/>
</g>
<path style="fill-rule:nonzero;fill:rgb(60.409546%,48.99292%,71.286011%);fill-opacity:1;stroke-width:10.6001;stroke-linecap:round;stroke-linejoin:round;stroke:rgb(13.729858%,12.159729%,12.548828%);stroke-opacity:1;stroke-miterlimit:10;" d="M 2415.373869 882.084288 L 1581.455413 472.269801 L 1120.433689 1383.703798 " transform="matrix(0.0997784,0,0,-0.0997784,0.0291622,184.180909)"/>
<path style="fill-rule:nonzero;fill:rgb(60.409546%,48.99292%,71.286011%);fill-opacity:1;stroke-width:10.6001;stroke-linecap:round;stroke-linejoin:round;stroke:rgb(13.729858%,12.159729%,12.548828%);stroke-opacity:1;stroke-miterlimit:10;" d="M 1120.433689 1383.703798 L 1925.655735 1840.653999 L 2415.373869 882.084288 " transform="matrix(0.0997784,0,0,-0.0997784,0.0291622,184.180909)"/>
<path style=" stroke:none;fill-rule:nonzero;fill:rgb(69.465637%,31.27594%,28.634644%);fill-opacity:1;" d="M 94.21875 6.765625 L 192.167969 0.523438 L 111.824219 46.117188 L 94.21875 6.765625 "/>
<path style="fill:none;stroke-width:10.6001;stroke-linecap:round;stroke-linejoin:round;stroke:rgb(13.729858%,12.159729%,12.548828%);stroke-opacity:1;stroke-miterlimit:10;" d="M 943.98796 1778.093476 L 1925.655735 1840.653999 L 1120.433689 1383.703798 Z M 943.98796 1778.093476 " transform="matrix(0.0997784,0,0,-0.0997784,0.0291622,184.180909)"/>
<g clip-path="url(#clip5)" clip-rule="nonzero">
<path style=" stroke:none;fill-rule:nonzero;fill:rgb(89.691162%,55.892944%,35.417175%);fill-opacity:1;" d="M 94.21875 6.765625 L 111.824219 46.117188 L 0.558594 156.640625 "/>
</g>
<path style="fill:none;stroke-width:10.6001;stroke-linecap:round;stroke-linejoin:round;stroke:rgb(13.729858%,12.159729%,12.548828%);stroke-opacity:1;stroke-miterlimit:10;" d="M 943.98796 1778.093476 L 1120.433689 1383.703798 " transform="matrix(0.0997784,0,0,-0.0997784,0.0291622,184.180909)"/>
<path style=" stroke:none;fill-rule:nonzero;fill:rgb(27.22168%,56.34613%,83.120728%);fill-opacity:1;" d="M 176.339844 169.058594 L 157.824219 137.058594 L 241.03125 96.167969 L 176.339844 169.058594 "/>
<path style="fill:none;stroke-width:10.6001;stroke-linecap:round;stroke-linejoin:round;stroke:rgb(13.729858%,12.159729%,12.548828%);stroke-opacity:1;stroke-miterlimit:10;" d="M 1767.022921 151.559037 L 1581.455413 472.269801 L 2415.373869 882.084288 Z M 1767.022921 151.559037 " transform="matrix(0.0997784,0,0,-0.0997784,0.0291622,184.180909)"/>
<path style=" stroke:none;fill-rule:nonzero;fill:rgb(51.870728%,82.714844%,96.011353%);fill-opacity:1;" d="M 157.824219 137.058594 L 176.339844 169.058594 L 72.183594 183.652344 "/>
<g clip-path="url(#clip6)" clip-rule="nonzero">
<path style="fill:none;stroke-width:10.6001;stroke-linecap:round;stroke-linejoin:round;stroke:rgb(13.729858%,12.159729%,12.548828%);stroke-opacity:1;stroke-miterlimit:10;" d="M 1581.455413 472.269801 L 1767.022921 151.559037 L 723.146966 5.297389 " transform="matrix(0.0997784,0,0,-0.0997784,0.0291622,184.180909)"/>
</g>
<g clip-path="url(#clip7)" clip-rule="nonzero">
<path style=" stroke:none;fill-rule:nonzero;fill:rgb(49.3927%,37.417603%,65.733337%);fill-opacity:1;" d="M 192.167969 0.523438 L 277.324219 14.628906 L 241.03125 96.167969 L 192.167969 0.523438 "/>
</g>
<g clip-path="url(#clip8)" clip-rule="nonzero">
<path style="fill:none;stroke-width:10.6001;stroke-linecap:round;stroke-linejoin:round;stroke:rgb(13.729858%,12.159729%,12.548828%);stroke-opacity:1;stroke-miterlimit:10;" d="M 1925.655735 1840.653999 L 2779.109674 1699.286009 L 2415.373869 882.084288 Z M 1925.655735 1840.653999 " transform="matrix(0.0997784,0,0,-0.0997784,0.0291622,184.180909)"/>
</g>
<path style="fill-rule:nonzero;fill:rgb(31.991577%,77.032471%,94.532776%);fill-opacity:1;stroke-width:10.6001;stroke-linecap:round;stroke-linejoin:round;stroke:rgb(13.729858%,12.159729%,12.548828%);stroke-opacity:1;stroke-miterlimit:10;" d="M 1925.655735 1840.653999 L 943.98796 1778.093476 L 1075.372887 1574.791352 " transform="matrix(0.0997784,0,0,-0.0997784,0.0291622,184.180909)"/>
<g clip-path="url(#clip9)" clip-rule="nonzero">
<path style=" stroke:none;fill-rule:nonzero;fill:rgb(31.991577%,77.032471%,94.532776%);fill-opacity:1;" d="M 277.324219 14.628906 L 192.167969 0.523438 L 107.328125 27.050781 "/>
</g>
<g clip-path="url(#clip10)" clip-rule="nonzero">
<path style="fill:none;stroke-width:10.6001;stroke-linecap:round;stroke-linejoin:round;stroke:rgb(13.729858%,12.159729%,12.548828%);stroke-opacity:1;stroke-miterlimit:10;" d="M 2779.109674 1699.286009 L 1925.655735 1840.653999 " transform="matrix(0.0997784,0,0,-0.0997784,0.0291622,184.180909)"/>
</g>
<g clip-path="url(#clip11)" clip-rule="nonzero">
<path style="fill-rule:nonzero;fill:rgb(86.738586%,49.827576%,17.077637%);fill-opacity:1;stroke-width:10.6001;stroke-linecap:round;stroke-linejoin:round;stroke:rgb(13.729858%,12.159729%,12.548828%);stroke-opacity:1;stroke-miterlimit:10;" d="M 2415.373869 882.084288 L 2779.109674 1699.286009 L 2331.790192 1516.498099 " transform="matrix(0.0997784,0,0,-0.0997784,0.0291622,184.180909)"/>
</g>
<path style=" stroke:none;fill-rule:nonzero;fill:rgb(86.738586%,49.827576%,17.077637%);fill-opacity:1;" d="M 176.339844 169.058594 L 241.03125 96.167969 L 232.691406 32.867188 "/>
<path style="fill:none;stroke-width:10.6001;stroke-linecap:round;stroke-linejoin:round;stroke:rgb(13.729858%,12.159729%,12.548828%);stroke-opacity:1;stroke-miterlimit:10;" d="M 1767.022921 151.559037 L 2415.373869 882.084288 " transform="matrix(0.0997784,0,0,-0.0997784,0.0291622,184.180909)"/>
<g clip-path="url(#clip12)" clip-rule="nonzero">
<path style=" stroke:none;fill-rule:nonzero;fill:rgb(89.691162%,55.892944%,35.417175%);fill-opacity:1;" d="M 0.558594 156.640625 L 19.394531 78.222656 L 94.21875 6.765625 "/>
</g>
<g clip-path="url(#clip13)" clip-rule="nonzero">
<path style="fill:none;stroke-width:10.6001;stroke-linecap:round;stroke-linejoin:round;stroke:rgb(13.729858%,12.159729%,12.548828%);stroke-opacity:1;stroke-miterlimit:10;" d="M 5.306075 276.014544 L 194.083823 1061.936004 L 943.98796 1778.093476 " transform="matrix(0.0997784,0,0,-0.0997784,0.0291622,184.180909)"/>
</g>
<g clip-path="url(#clip14)" clip-rule="nonzero">
<path style=" stroke:none;fill-rule:nonzero;fill:rgb(41.650391%,29.423523%,59.968567%);fill-opacity:1;" d="M 72.183594 183.652344 L 19.394531 78.222656 L 0.558594 156.640625 L 72.183594 183.652344 "/>
</g>
<g clip-path="url(#clip15)" clip-rule="nonzero">
<path style="fill:none;stroke-width:10.6001;stroke-linecap:round;stroke-linejoin:round;stroke:rgb(13.729858%,12.159729%,12.548828%);stroke-opacity:1;stroke-miterlimit:10;" d="M 723.146966 5.297389 L 194.083823 1061.936004 L 5.306075 276.014544 Z M 723.146966 5.297389 " transform="matrix(0.0997784,0,0,-0.0997784,0.0291622,184.180909)"/>
</g>
<path style=" stroke:none;fill-rule:nonzero;fill:rgb(13.15155%,48.097229%,78.585815%);fill-opacity:1;" d="M 19.394531 78.222656 L 107.328125 27.050781 L 94.21875 6.765625 L 19.394531 78.222656 "/>
<path style="fill:none;stroke-width:10.6001;stroke-linecap:round;stroke-linejoin:round;stroke:rgb(13.729858%,12.159729%,12.548828%);stroke-opacity:1;stroke-miterlimit:10;" d="M 194.083823 1061.936004 L 1075.372887 1574.791352 L 943.98796 1778.093476 Z M 194.083823 1061.936004 " transform="matrix(0.0997784,0,0,-0.0997784,0.0291622,184.180909)"/>
<path style="fill-rule:nonzero;fill:rgb(86.738586%,49.827576%,17.077637%);fill-opacity:1;stroke-width:10.6001;stroke-linecap:round;stroke-linejoin:round;stroke:rgb(13.729858%,12.159729%,12.548828%);stroke-opacity:1;stroke-miterlimit:10;" d="M 2331.790192 1516.498099 L 1642.528264 454.26114 L 1767.022921 151.559037 " transform="matrix(0.0997784,0,0,-0.0997784,0.0291622,184.180909)"/>
<path style=" stroke:none;fill-rule:nonzero;fill:rgb(62.882996%,18.223572%,15.049744%);fill-opacity:1;" d="M 163.917969 138.855469 L 72.183594 183.652344 L 176.339844 169.058594 L 163.917969 138.855469 "/>
<g clip-path="url(#clip16)" clip-rule="nonzero">
<path style="fill:none;stroke-width:10.6001;stroke-linecap:round;stroke-linejoin:round;stroke:rgb(13.729858%,12.159729%,12.548828%);stroke-opacity:1;stroke-miterlimit:10;" d="M 1642.528264 454.26114 L 723.146966 5.297389 L 1767.022921 151.559037 Z M 1642.528264 454.26114 " transform="matrix(0.0997784,0,0,-0.0997784,0.0291622,184.180909)"/>
</g>
<g clip-path="url(#clip17)" clip-rule="nonzero">
<path style=" stroke:none;fill-rule:nonzero;fill:rgb(31.991577%,77.032471%,94.532776%);fill-opacity:1;" d="M 107.328125 27.050781 L 232.691406 32.867188 L 277.324219 14.628906 "/>
</g>
<g clip-path="url(#clip18)" clip-rule="nonzero">
<path style="fill:none;stroke-width:10.6001;stroke-linecap:round;stroke-linejoin:round;stroke:rgb(13.729858%,12.159729%,12.548828%);stroke-opacity:1;stroke-miterlimit:10;" d="M 1075.372887 1574.791352 L 2331.790192 1516.498099 L 2779.109674 1699.286009 " transform="matrix(0.0997784,0,0,-0.0997784,0.0291622,184.180909)"/>
</g>
<path style="fill-rule:nonzero;fill:rgb(57.25708%,46.182251%,69.874573%);fill-opacity:1;stroke-width:10.6001;stroke-linecap:round;stroke-linejoin:round;stroke:rgb(13.729858%,12.159729%,12.548828%);stroke-opacity:1;stroke-miterlimit:10;" d="M 1642.528264 454.26114 L 1075.372887 1574.791352 L 194.083823 1061.936004 " transform="matrix(0.0997784,0,0,-0.0997784,0.0291622,184.180909)"/>
<path style=" stroke:none;fill-rule:nonzero;fill:rgb(57.25708%,46.182251%,69.874573%);fill-opacity:1;" d="M 19.394531 78.222656 L 72.183594 183.652344 L 163.917969 138.855469 "/>
<g clip-path="url(#clip19)" clip-rule="nonzero">
<path style="fill:none;stroke-width:10.6001;stroke-linecap:round;stroke-linejoin:round;stroke:rgb(13.729858%,12.159729%,12.548828%);stroke-opacity:1;stroke-miterlimit:10;" d="M 194.083823 1061.936004 L 723.146966 5.297389 L 1642.528264 454.26114 " transform="matrix(0.0997784,0,0,-0.0997784,0.0291622,184.180909)"/>
</g>
<path style=" stroke:none;fill-rule:nonzero;fill:rgb(67.13562%,56.32019%,75.457764%);fill-opacity:1;" d="M 107.328125 27.050781 L 163.917969 138.855469 L 232.691406 32.867188 L 107.328125 27.050781 "/>
<path style="fill:none;stroke-width:10.6001;stroke-linecap:round;stroke-linejoin:round;stroke:rgb(13.729858%,12.159729%,12.548828%);stroke-opacity:1;stroke-miterlimit:10;" d="M 1075.372887 1574.791352 L 1642.528264 454.26114 L 2331.790192 1516.498099 Z M 1075.372887 1574.791352 " transform="matrix(0.0997784,0,0,-0.0997784,0.0291622,184.180909)"/>
</g>
</svg>

<svg xmlns="http://www.w3.org/2000/svg" width="371.253" height="246.12" viewBox="0 0 278.44 184.59" version="1.2"><defs><clipPath id="a"><path d="M.027 130H73v54H.027Zm0 0"/></clipPath><clipPath id="b"><path d="M.027 130H73v54.18H.027Zm0 0"/></clipPath><clipPath id="c"><path d="M.027 46H112v111H.027Zm0 0"/></clipPath><clipPath id="d"><path d="M.027 45H113v113H.027Zm0 0"/></clipPath><clipPath id="e"><path d="M.027 6H112v151H.027Zm0 0"/></clipPath><clipPath id="f"><path d="M71 136h106v48.18H71Zm0 0"/></clipPath><clipPath id="g"><path d="M192 0h85.852v97H192Zm0 0"/></clipPath><clipPath id="h"><path d="M191 0h86.852v97H191Zm0 0"/></clipPath><clipPath id="i"><path d="M107 0h170.852v28H107Zm0 0"/></clipPath><clipPath id="j"><path d="M191 0h86.852v16H191Zm0 0"/></clipPath><clipPath id="k"><path d="M232 14h45.852v83H232Zm0 0"/></clipPath><clipPath id="l"><path d="M.027 6H95v151H.027Zm0 0"/></clipPath><clipPath id="m"><path d="M.027 6H95v152H.027Zm0 0"/></clipPath><clipPath id="n"><path d="M.027 78H73v106H.027Zm0 0"/></clipPath><clipPath id="o"><path d="M.027 77H73v107.18H.027Zm0 0"/></clipPath><clipPath id="p"><path d="M71 138h106v46.18H71Zm0 0"/></clipPath><clipPath id="q"><path d="M107 14h170.852v19H107Zm0 0"/></clipPath><clipPath id="r"><path d="M106 14h171.852v20H106Zm0 0"/></clipPath><clipPath id="s"><path d="M18 77h147v107.18H18Zm0 0"/></clipPath></defs><path style="stroke:none;fill-rule:nonzero;fill:#ad92c1;fill-opacity:1" d="m157.824 137.059-99.332-6.485 53.332-84.457 46 90.942"/><path style="fill:none;stroke-width:10.6001;stroke-linecap:round;stroke-linejoin:round;stroke:#231f20;stroke-opacity:1;stroke-miterlimit:10" d="M1581.455 472.27 585.93 537.258l534.505 846.446Zm0 0" transform="matrix(.09978 0 0 -.09978 .03 184.18)"/><path style="stroke:none;fill-rule:nonzero;fill:#84d3f5;fill-opacity:1" d="m58.492 130.574 99.332 6.485-85.64 46.593"/><path style="fill:none;stroke-width:10.6001;stroke-linecap:round;stroke-linejoin:round;stroke:#231f20;stroke-opacity:1;stroke-miterlimit:10" d="m585.929 537.258 995.526-64.988" transform="matrix(.09978 0 0 -.09978 .03 184.18)"/><g clip-path="url(#a)"><path style="stroke:none;fill-rule:nonzero;fill:#84d3f5;fill-opacity:1" d="M72.184 183.652.559 156.641l57.933-26.067"/></g><g clip-path="url(#b)"><path style="fill:none;stroke-width:10.6001;stroke-linecap:round;stroke-linejoin:round;stroke:#231f20;stroke-opacity:1;stroke-miterlimit:10" d="M723.147 5.297 5.307 276.015l580.622 261.243" transform="matrix(.09978 0 0 -.09978 .03 184.18)"/></g><g clip-path="url(#c)"><path style="stroke:none;fill-rule:nonzero;fill:#e58f5a;fill-opacity:1" d="m111.824 46.117-53.332 84.457L.56 156.641"/></g><g clip-path="url(#d)"><path style="fill:none;stroke-width:10.6001;stroke-linecap:round;stroke-linejoin:round;stroke:#231f20;stroke-opacity:1;stroke-miterlimit:10" d="M1120.434 1383.704 585.929 537.258 5.306 276.015" transform="matrix(.09978 0 0 -.09978 .03 184.18)"/></g><path style="fill-rule:nonzero;fill:#9a7db6;fill-opacity:1;stroke-width:10.6001;stroke-linecap:round;stroke-linejoin:round;stroke:#231f20;stroke-opacity:1;stroke-miterlimit:10" d="M2415.374 882.084 1581.455 472.27l-461.021 911.434M1120.434 1383.704l805.222 456.95 489.718-958.57" transform="matrix(.09978 0 0 -.09978 .03 184.18)"/><path style="stroke:none;fill-rule:nonzero;fill:#b15049;fill-opacity:1" d="M94.219 6.766 192.168.523l-80.344 45.594L94.22 6.766"/><path style="fill:none;stroke-width:10.6001;stroke-linecap:round;stroke-linejoin:round;stroke:#231f20;stroke-opacity:1;stroke-miterlimit:10" d="m943.988 1778.093 981.668 62.561-805.222-456.95Zm0 0" transform="matrix(.09978 0 0 -.09978 .03 184.18)"/><g clip-path="url(#e)"><path style="stroke:none;fill-rule:nonzero;fill:#e58f5a;fill-opacity:1" d="m94.219 6.766 17.605 39.351L.56 156.641"/></g><path style="fill:none;stroke-width:10.6001;stroke-linecap:round;stroke-linejoin:round;stroke:#231f20;stroke-opacity:1;stroke-miterlimit:10" d="m943.988 1778.093 176.446-394.39" transform="matrix(.09978 0 0 -.09978 .03 184.18)"/><path style="stroke:none;fill-rule:nonzero;fill:#4590d4;fill-opacity:1" d="m176.34 169.059-18.516-32 83.207-40.891-64.691 72.89"/><path style="fill:none;stroke-width:10.6001;stroke-linecap:round;stroke-linejoin:round;stroke:#231f20;stroke-opacity:1;stroke-miterlimit:10" d="m1767.023 151.559-185.568 320.71 833.919 409.815Zm0 0" transform="matrix(.09978 0 0 -.09978 .03 184.18)"/><path style="stroke:none;fill-rule:nonzero;fill:#84d3f5;fill-opacity:1" d="m157.824 137.059 18.516 32-104.156 14.593"/><g clip-path="url(#f)"><path style="fill:none;stroke-width:10.6001;stroke-linecap:round;stroke-linejoin:round;stroke:#231f20;stroke-opacity:1;stroke-miterlimit:10" d="m1581.455 472.27 185.568-320.711L723.147 5.297" transform="matrix(.09978 0 0 -.09978 .03 184.18)"/></g><g clip-path="url(#g)"><path style="stroke:none;fill-rule:nonzero;fill:#7e5fa8;fill-opacity:1" d="m192.168.523 85.156 14.106-36.293 81.539L192.168.523"/></g><g clip-path="url(#h)"><path style="fill:none;stroke-width:10.6001;stroke-linecap:round;stroke-linejoin:round;stroke:#231f20;stroke-opacity:1;stroke-miterlimit:10" d="m1925.656 1840.654 853.454-141.368-363.736-817.202Zm0 0" transform="matrix(.09978 0 0 -.09978 .03 184.18)"/></g><path style="fill-rule:nonzero;fill:#52c4f1;fill-opacity:1;stroke-width:10.6001;stroke-linecap:round;stroke-linejoin:round;stroke:#231f20;stroke-opacity:1;stroke-miterlimit:10" d="m1925.656 1840.654-981.668-62.56 131.385-203.303" transform="matrix(.09978 0 0 -.09978 .03 184.18)"/><g clip-path="url(#i)"><path style="stroke:none;fill-rule:nonzero;fill:#52c4f1;fill-opacity:1" d="M277.324 14.629 192.168.523l-84.84 26.528"/></g><g clip-path="url(#j)"><path style="fill:none;stroke-width:10.6001;stroke-linecap:round;stroke-linejoin:round;stroke:#231f20;stroke-opacity:1;stroke-miterlimit:10" d="m2779.11 1699.286-853.454 141.368" transform="matrix(.09978 0 0 -.09978 .03 184.18)"/></g><g clip-path="url(#k)"><path style="fill-rule:nonzero;fill:#dd7f2c;fill-opacity:1;stroke-width:10.6001;stroke-linecap:round;stroke-linejoin:round;stroke:#231f20;stroke-opacity:1;stroke-miterlimit:10" d="m2415.374 882.084 363.736 817.202-447.32-182.788" transform="matrix(.09978 0 0 -.09978 .03 184.18)"/></g><path style="stroke:none;fill-rule:nonzero;fill:#dd7f2c;fill-opacity:1" d="m176.34 169.059 64.691-72.891-8.34-63.3"/><path style="fill:none;stroke-width:10.6001;stroke-linecap:round;stroke-linejoin:round;stroke:#231f20;stroke-opacity:1;stroke-miterlimit:10" d="m1767.023 151.559 648.35 730.525" transform="matrix(.09978 0 0 -.09978 .03 184.18)"/><g clip-path="url(#l)"><path style="stroke:none;fill-rule:nonzero;fill:#e58f5a;fill-opacity:1" d="m.559 156.64 18.836-78.417L94.219 6.766"/></g><g clip-path="url(#m)"><path style="fill:none;stroke-width:10.6001;stroke-linecap:round;stroke-linejoin:round;stroke:#231f20;stroke-opacity:1;stroke-miterlimit:10" d="m5.306 276.015 188.778 785.921 749.904 716.157" transform="matrix(.09978 0 0 -.09978 .03 184.18)"/></g><g clip-path="url(#n)"><path style="stroke:none;fill-rule:nonzero;fill:#6a4b99;fill-opacity:1" d="m72.184 183.652-52.79-105.43L.56 156.642l71.625 27.011"/></g><g clip-path="url(#o)"><path style="fill:none;stroke-width:10.6001;stroke-linecap:round;stroke-linejoin:round;stroke:#231f20;stroke-opacity:1;stroke-miterlimit:10" d="M723.147 5.297 194.084 1061.936 5.306 276.015Zm0 0" transform="matrix(.09978 0 0 -.09978 .03 184.18)"/></g><path style="stroke:none;fill-rule:nonzero;fill:#227bc8;fill-opacity:1" d="m19.395 78.223 87.933-51.172-13.11-20.285-74.823 71.457"/><path style="fill:none;stroke-width:10.6001;stroke-linecap:round;stroke-linejoin:round;stroke:#231f20;stroke-opacity:1;stroke-miterlimit:10" d="m194.084 1061.936 881.289 512.855-131.385 203.302Zm0 0" transform="matrix(.09978 0 0 -.09978 .03 184.18)"/><path style="fill-rule:nonzero;fill:#dd7f2c;fill-opacity:1;stroke-width:10.6001;stroke-linecap:round;stroke-linejoin:round;stroke:#231f20;stroke-opacity:1;stroke-miterlimit:10" d="M2331.79 1516.498 1642.528 454.261l124.495-302.702" transform="matrix(.09978 0 0 -.09978 .03 184.18)"/><path style="stroke:none;fill-rule:nonzero;fill:#a02e26;fill-opacity:1" d="m163.918 138.855-91.734 44.797L176.34 169.06l-12.422-30.204"/><g clip-path="url(#p)"><path style="fill:none;stroke-width:10.6001;stroke-linecap:round;stroke-linejoin:round;stroke:#231f20;stroke-opacity:1;stroke-miterlimit:10" d="M1642.528 454.261 723.147 5.297 1767.023 151.56Zm0 0" transform="matrix(.09978 0 0 -.09978 .03 184.18)"/></g><g clip-path="url(#q)"><path style="stroke:none;fill-rule:nonzero;fill:#52c4f1;fill-opacity:1" d="m107.328 27.05 125.363 5.817 44.633-18.238"/></g><g clip-path="url(#r)"><path style="fill:none;stroke-width:10.6001;stroke-linecap:round;stroke-linejoin:round;stroke:#231f20;stroke-opacity:1;stroke-miterlimit:10" d="m1075.373 1574.791 1256.417-58.293 447.32 182.788" transform="matrix(.09978 0 0 -.09978 .03 184.18)"/></g><path style="fill-rule:nonzero;fill:#9276b2;fill-opacity:1;stroke-width:10.6001;stroke-linecap:round;stroke-linejoin:round;stroke:#231f20;stroke-opacity:1;stroke-miterlimit:10" d="m1642.528 454.261-567.155 1120.53-881.29-512.855" transform="matrix(.09978 0 0 -.09978 .03 184.18)"/><path style="stroke:none;fill-rule:nonzero;fill:#9276b2;fill-opacity:1" d="m19.395 78.223 52.789 105.43 91.734-44.798"/><g clip-path="url(#s)"><path style="fill:none;stroke-width:10.6001;stroke-linecap:round;stroke-linejoin:round;stroke:#231f20;stroke-opacity:1;stroke-miterlimit:10" d="M194.084 1061.936 723.147 5.297l919.381 448.964" transform="matrix(.09978 0 0 -.09978 .03 184.18)"/></g><path style="stroke:none;fill-rule:nonzero;fill:#ab90c0;fill-opacity:1" d="m107.328 27.05 56.59 111.805 68.773-105.988-125.363-5.816"/><path style="fill:none;stroke-width:10.6001;stroke-linecap:round;stroke-linejoin:round;stroke:#231f20;stroke-opacity:1;stroke-miterlimit:10" d="m1075.373 1574.791 567.155-1120.53 689.262 1062.237Zm0 0" transform="matrix(.09978 0 0 -.09978 .03 184.18)"/></svg>
